X: 552
T: If the Sea Were Ink   #2
T: da m-bu\.d n-\.duba.c an \.muir lan.
R: reel, air
%S: s:2 b:12(4+5)
B: O'Neill's 1850 #552
O: F.O'Neill.
Z: J.B. Walsh (walsh@math.ubc.ca)
N: Compacted via repeats and multiple endings [JC]
N: It's not clear whether this tune should be played 16 or 20 bars.
Q: "Moderate."
M: C
L: 1/8
K: G
"^A"|: e/f/g/e/ | dBAB G2GB | d2e>f e2dB | A2AB dBAB | G4 Hz2 :|
"^B"|: Bd | e2dB d2e>f | g2"~ "g>a  {c'}b2ag  | {f}e2g>e edBd |1 e3f/e/ d2 :|2 e3d Hg2 "_D.C."z|]
